src/places/16/folder-brown.svg

<svg width="16" height="16" version="1.1" viewBox="0 0 16 16" xmlns="http://www.w3.org/2000/svg">
 <defs>
  <style id="current-color-scheme" type="text/css">.ColorScheme-Text { color:#d35400; }</style>
 </defs>
 <path d="m2 2c-1.108 0-2 0.892-2 2v9c0 1.108 0.892 2 2 2h12c1.108 0 2-0.892 2-2v-8c0-1.108-0.892-2-2-2h-2-5.6289c-0.57985-0.0229-0.60474 0.076886-1.0391-0.35742-0.43381-0.43381-0.61297-0.64213-1.332-0.64258h-2zm0 1h2c0.31116-1.7e-6 0.52033 1.383e-4 0.99805 0.4707 0.47877 0.47161 0.6388 0.5293 1 0.5293h6.002 2c0.554 0 1 0.446 1 1v1h-14v-2c0-0.554 0.446-1 1-1zm-1 4h14v6c0 0.554-0.446 1-1 1h-12c-0.554 0-1-0.446-1-1v-6z" style="fill:currentColor" class="ColorScheme-Text"/>
</svg>

<svg xmlns="http://www.w3.org/2000/svg" width="16" height="16">
    <path d="M2 2C.892 2 0 2.892 0 4v9c0 1.108.892 2 2 2h12c1.108 0 2-.892 2-2V5c0-1.108-.892-2-2-2H6.371c-.58-.023-.605.077-1.039-.357C4.898 2.209 4.719 2 4 2H2zm0 1h2c.311 0 .52 0 .998.47.479.472.639.53 1 .53H14c.554 0 1 .446 1 1v1H1V4c0-.554.446-1 1-1zM1 7h14v6c0 .554-.446 1-1 1H2c-.554 0-1-.446-1-1V7z" style="fill:#c6bb9f"/>
</svg>
